X:1554
T:Four-Hand Reel, The
R:reel
N:"collected from Delaney"
B:"O'Neill's Dance Music of Ireland, 1554"
T: seisd na cei.tre-la.m.
Z:transcribed by John B. Walsh, walsh@math.ubc.ca 8/23/96
M:C|
L:1/8
K:G
((3DEF) "Segno"|G2 (BG) cGBG|FADA FADA|G2 (BG) dGBd|egfa gedB|
G2 (BG) dGBG|FADA FADA|G2 (BG) dGBd|egfa g2 g2 Hx||
gdBd edBd|gabg fdef|gdBd edBd|egfa g2 g2|
gabg efge|dedc BGBd|efed edBd|egfa gedB "Segno"||


